X: 23
T: Happy to Meet, Sorry to Part
R: jig
Z: 2012 John Chambers <jc:trillian.mit.edu>
B: NEFR #23
M: 6/8
L: 1/8
K: G
|:\
dBB BAB | GEF G2A | Bee dBA | B2B gfe |\
dBB BAB | GEF G2A | Bee dBA | BGG G3 :|
|:\
g2g fed | Bdd def | g2g fed | Bee e2f |\
g2g fed | Bdd def | gfg eag | fef gfe :|
